X: 1160
T:Holly Bush, The (A68)
N: page A68
N: heptatonic
S:Trad, arr. Paddy O'Brien
R:reel
E:9
I:speed 350
M:C|
K:Ador
Bd|"Am"eAAG EAcA|"G"BG ~G2 BABd|efed BAGA|\
Bdef ~g2ag|"Am"eAAG EAcA|
"G"BG~G2 BABd|eg~g2 "Am"aged|"G"egdB "Am"A2:|\
Bd|eaag ~a2ge|"G"dg~g2 "Am"aged|
efed "G"BAGA|Bdef ~g2fg|"Am"eaag ~a2 ge|\
"G"dg~g2 agbg|"Am"agef "G"gedB|egdB "Am"A2:|
